X:724
T:Vaqueirada (CT 073) (Arrg.)
R:Vaqueirada
C:Tradicional
S:Msica Tradicional Asturiana, (C) Tello & Tito. Asturies, 2001.
S:http://pagina.de/MusTradAst <telloytito@asturies.org>
N:Cancin de empleo indeterminado, dictada por D. Juan Ura Ru, de Uviu, quien dice la aprendi de los vaqueiros que habitan las braas prximas a Somiedu.
N:La letra contiene un pensamiento injurioso dirigido a las mozas del valle de L.laciana, en la provincia de Llen.
A:Asturies
G:Arrg.
O:Somiedu
Z:Cancioneru de Torner 073
M:3/8
L:1/8
Q:3/8=88
K:Bb
"Cm"GGG|"Cm"Gc"Eb"B|"Gm"(d-(3d/2e/2d/2)"Cm"c|Gc"Eb"B|"Gm"(d-(3d/2e/2d/2)"Cm"c-|c2 z|
"Cm"c2G|"Cm"cBA|"F"(cB/2A/2) G|"Cm"cBA|"F"(cB/2A/2)"Cm"G-|G2 z||
W:Mociquines de L.laciana,
W:quin vos mantin
W:Los arrieros del puertu
W:que van y vienen.
W:
